apps/symbolic/gnome-aisleriot-symbolic.svg

<?xml version="1.0" encoding="UTF-8" standalone="no"?>
<svg
   height="16px"
   viewBox="0 0 16 16"
   width="16px"
   version="1.1"
   id="svg4"
   xmlns="http://www.w3.org/2000/svg"
   xmlns:svg="http://www.w3.org/2000/svg">
  <defs
     id="defs8">
    <linearGradient
       id="linearGradient1062"
       x1="399.57001"
       x2="399.57001"
       y1="545.79999"
       y2="517.79999"
       gradientTransform="matrix(2.1429152,0,0,2.1429152,-1084.3971,-1165.5276)"
       gradientUnits="userSpaceOnUse">
      <stop
         stop-color="#3889e9"
         offset="0"
         id="stop5635" />
      <stop
         stop-color="#5ea5fb"
         offset="1"
         id="stop5637" />
    </linearGradient>
  </defs>
  <circle
     cx="-226.01099"
     cy="-25.975443"
     r="0"
     fill="url(#linearGradient1062)"
     stroke-width="1.57151"
     id="circle5662"
     style="display:inline;fill:url(#linearGradient1062);enable-background:new" />
  <path
     id="rect1986"
     style="fill:#000000"
     d="m 5,-2.5e-7 c -1.661998,0 -3,1.33800165 -3,2.99999995 V 13 c 0,1.661997 1.338002,3 3,3 h 6 c 1.661998,0 3,-1.338003 3,-3 V 2.9999997 C 14,1.3380014 12.661998,-2.5e-7 11,-2.5e-7 Z M 6.5,5.0000002 c 0.828425,0 1.5,0.671574 1.5,1.5 0,-0.828426 0.671574,-1.5 1.5,-1.5 0.828425,0 1.5,0.671574 1.5,1.5 C 10.97905,8.5504792 8.662117,10.212812 8,11 7.337883,10.212812 5.020953,8.5504792 5,6.5000002 c 0,-0.828426 0.671574,-1.5 1.5,-1.5 z" />
</svg>

<?xml version="1.0" encoding="UTF-8" standalone="no"?>
<!-- Created with Inkscape (http://www.inkscape.org/) -->

<svg
   width="16"
   height="16"
   viewBox="0 0 16 16"
   version="1.1"
   id="svg1813"
   inkscape:version="1.2.2 (b0a8486541, 2022-12-01)"
   sodipodi:docname="gnome-aisleriot-symbolic.svg"
   xmlns:inkscape="http://www.inkscape.org/namespaces/inkscape"
   xmlns:sodipodi="http://sodipodi.sourceforge.net/DTD/sodipodi-0.dtd"
   xmlns="http://www.w3.org/2000/svg"
   xmlns:svg="http://www.w3.org/2000/svg">
  <sodipodi:namedview
     id="namedview1815"
     pagecolor="#ffffff"
     bordercolor="#000000"
     borderopacity="0.25"
     inkscape:showpageshadow="2"
     inkscape:pageopacity="0.0"
     inkscape:pagecheckerboard="0"
     inkscape:deskcolor="#d1d1d1"
     inkscape:document-units="px"
     showgrid="false"
     inkscape:zoom="49.5"
     inkscape:cx="7.989899"
     inkscape:cy="8"
     inkscape:window-width="1920"
     inkscape:window-height="1007"
     inkscape:window-x="0"
     inkscape:window-y="0"
     inkscape:window-maximized="1"
     inkscape:current-layer="layer1" />
  <defs
     id="defs1810" />
  <g
     inkscape:label="레이어 1"
     inkscape:groupmode="layer"
     id="layer1">
    <path
       id="rect1986"
       style="opacity:1;fill:#000000"
       d="M 5 0 C 3.3380017 0 2 1.3380017 2 3 L 2 13 C 2 14.661998 3.3380017 16 5 16 L 11 16 C 12.661998 16 14 14.661998 14 13 L 14 3 C 14 1.3380017 12.661998 0 11 0 L 5 0 z M 6.5 5 C 7.3284255 5 8 5.6715745 8 6.5 C 8 5.6715745 8.6715745 5 9.5 5 C 10.328425 5 11 5.6715745 11 6.5 C 10.979047 8.5504799 8.662117 10.212812 8 11 C 7.337883 10.212812 5.020953 8.5504799 5 6.5 C 5 5.6715745 5.6715745 5 6.5 5 z " />
  </g>
</svg>
